public/img/sun.svg

<svg xmlns="http://www.w3.org/2000/svg" viewBox="0 0 32 32" enable-background="new 0 0 32 32"><path fill="#00A2E0" d="M30.4 14.7h-1.6c-.9 0-1.6.6-1.6 1.3 0 .7.7 1.3 1.6 1.3h1.6c.9 0 1.6-.6 1.6-1.3s-.7-1.3-1.6-1.3zM16 7.2c-4.9 0-8.8 3.9-8.8 8.8s3.9 8.8 8.8 8.8 8.8-3.9 8.8-8.8-3.9-8.8-8.8-8.8zm0 15.2c-3.5 0-6.4-2.9-6.4-6.4 0-3.5 2.9-6.4 6.4-6.4s6.4 2.9 6.4 6.4c0 3.5-2.9 6.4-6.4 6.4zM4.8 16c0-.7-.7-1.3-1.6-1.3H1.6c-.9 0-1.6.6-1.6 1.3 0 .7.7 1.3 1.6 1.3h1.6c.9 0 1.6-.6 1.6-1.3zM16 4.8c.7 0 1.3-.7 1.3-1.6V1.6C17.3.7 16.7 0 16 0s-1.3.7-1.3 1.6v1.6c0 .9.6 1.6 1.3 1.6zm0 22.4c-.7 0-1.3.7-1.3 1.6v1.6c0 .9.6 1.6 1.3 1.6.7 0 1.3-.7 1.3-1.6v-1.6c0-.9-.6-1.6-1.3-1.6zM27.8 6c.6-.6.7-1.5.2-2s-1.4-.4-2 .2l-1.1 1.1c-.6.6-.7 1.5-.2 2s1.4.4 2-.2L27.8 6zM5.3 24.9L4.2 26c-.6.6-.7 1.5-.2 2s1.4.4 2-.2l1.1-1.1c.6-.6.7-1.5.2-2s-1.3-.5-2 .2zM6 4.2c-.6-.6-1.5-.7-2-.2s-.4 1.4.2 2l1.1 1.1c.6.6 1.5.7 2 .2s.4-1.4-.2-2L6 4.2zm18.9 22.5l1.1 1.1c.6.6 1.5.7 2 .2s.4-1.4-.2-2l-1.1-1.1c-.6-.6-1.5-.7-2-.2s-.5 1.3.2 2z"/></svg>

<?xml version="1.0" encoding="utf-8"?>
<!-- Generator: Adobe Illustrator 17.1.0, SVG Export Plug-In . SVG Version: 6.00 Build 0)  -->
<!DOCTYPE svg PUBLIC "-//W3C//DTD SVG 1.1//EN" "http://www.w3.org/Graphics/SVG/1.1/DTD/svg11.dtd">
<svg version="1.1" id="Layer_1" xmlns="http://www.w3.org/2000/svg" xmlns:xlink="http://www.w3.org/1999/xlink" x="0px" y="0px"
	 viewBox="0 0 32 32" enable-background="new 0 0 32 32" xml:space="preserve">
<path fill="#00A2E0" d="M30.4,14.7c-0.3,0-1.3,0-1.6,0c-0.9,0-1.6,0.6-1.6,1.3c0,0.7,0.7,1.3,1.6,1.3c0.3,0,1.3,0,1.6,0
	c0.9,0,1.6-0.6,1.6-1.3S31.3,14.7,30.4,14.7z M16,7.2c-4.9,0-8.8,3.9-8.8,8.8c0,4.9,3.9,8.8,8.8,8.8c4.9,0,8.8-3.9,8.8-8.8
	C24.8,11.1,20.9,7.2,16,7.2z M16,22.4c-3.5,0-6.4-2.9-6.4-6.4c0-3.5,2.9-6.4,6.4-6.4s6.4,2.9,6.4,6.4C22.4,19.5,19.5,22.4,16,22.4z
	 M4.8,16c0-0.7-0.7-1.3-1.6-1.3c-0.3,0-1.3,0-1.6,0C0.7,14.7,0,15.3,0,16c0,0.7,0.7,1.3,1.6,1.3c0.3,0,1.3,0,1.6,0
	C4.1,17.3,4.8,16.7,4.8,16z M16,4.8c0.7,0,1.3-0.7,1.3-1.6c0-0.3,0-1.3,0-1.6C17.3,0.7,16.7,0,16,0s-1.3,0.7-1.3,1.6
	c0,0.3,0,1.3,0,1.6C14.7,4.1,15.3,4.8,16,4.8z M16,27.2c-0.7,0-1.3,0.7-1.3,1.6c0,0.3,0,1.3,0,1.6c0,0.9,0.6,1.6,1.3,1.6
	c0.7,0,1.3-0.7,1.3-1.6c0-0.3,0-1.3,0-1.6C17.3,27.9,16.7,27.2,16,27.2z M27.8,6c0.6-0.6,0.7-1.5,0.2-2s-1.4-0.4-2,0.2
	c-0.2,0.2-0.9,0.9-1.1,1.1c-0.6,0.6-0.7,1.5-0.2,2s1.4,0.4,2-0.2C26.8,7,27.6,6.2,27.8,6L27.8,6z M5.3,24.9C5.2,25,4.4,25.8,4.2,26
	c-0.6,0.6-0.7,1.5-0.2,2s1.4,0.4,2-0.2c0.2-0.2,0.9-0.9,1.1-1.1c0.6-0.6,0.7-1.5,0.2-2S6,24.2,5.3,24.9z M6,4.2C5.4,3.6,4.5,3.5,4,4
	S3.6,5.4,4.2,6C4.4,6.2,5.2,7,5.3,7.1c0.6,0.6,1.5,0.7,2,0.2s0.4-1.4-0.2-2C7,5.2,6.2,4.4,6,4.2z M24.9,26.7
	c0.2,0.2,0.9,0.9,1.1,1.1c0.6,0.6,1.5,0.7,2,0.2s0.4-1.4-0.2-2c-0.2-0.2-0.9-0.9-1.1-1.1c-0.6-0.6-1.5-0.7-2-0.2S24.2,26,24.9,26.7z
	"/>
</svg>
